main/svg/coal.svg

<svg xmlns="http://www.w3.org/2000/svg" width="32" height="32"><path d="M10 5a5 5 0 0 0-5 5 5 5 0 0 0 5 5h1v2h-1a5 5 0 0 0-5 5 5 5 0 0 0 5 5 5 5 0 0 0 5-5v-1h2v1a5 5 0 0 0 5 5 5 5 0 0 0 5-5 5 5 0 0 0-5-5h-1v-2h1a5 5 0 0 0 5-5 5 5 0 0 0-5-5 5 5 0 0 0-5 5v1h-2v-1a5 5 0 0 0-5-5z" style="fill:#000;fill-opacity:1;stroke-width:.1;stop-color:#000"/></svg>

<?xml version="1.0" encoding="UTF-8" standalone="no"?>
<svg
   width="32"
   height="32"
   version="1.1"
   id="svg6410"
   sodipodi:docname="coal.svg"
   inkscape:version="1.2.2 (b0a8486, 2022-12-01)"
   xmlns:inkscape="http://www.inkscape.org/namespaces/inkscape"
   xmlns:sodipodi="http://sodipodi.sourceforge.net/DTD/sodipodi-0.dtd"
   xmlns="http://www.w3.org/2000/svg"
   xmlns:svg="http://www.w3.org/2000/svg">
  <defs
     id="defs6414" />
  <sodipodi:namedview
     id="namedview6412"
     pagecolor="#505050"
     bordercolor="#ffffff"
     borderopacity="1"
     inkscape:showpageshadow="0"
     inkscape:pageopacity="0"
     inkscape:pagecheckerboard="1"
     inkscape:deskcolor="#505050"
     showgrid="true"
     inkscape:zoom="39.4375"
     inkscape:cx="15.987322"
     inkscape:cy="13.971474"
     inkscape:window-width="2560"
     inkscape:window-height="1440"
     inkscape:window-x="0"
     inkscape:window-y="0"
     inkscape:window-maximized="0"
     inkscape:current-layer="svg6410">
    <inkscape:grid
       type="xygrid"
       id="grid7142"
       empspacing="4" />
  </sodipodi:namedview>
  <path
     id="rect7778"
     style="fill:#000000;fill-opacity:1;stroke-width:0.1;stop-color:#000000"
     d="M 10 5 A 5 5 0 0 0 5 10 A 5 5 0 0 0 10 15 L 11 15 L 11 17 L 10 17 A 5 5 0 0 0 5 22 A 5 5 0 0 0 10 27 A 5 5 0 0 0 15 22 L 15 21 L 17 21 L 17 22 A 5 5 0 0 0 22 27 A 5 5 0 0 0 27 22 A 5 5 0 0 0 22 17 L 21 17 L 21 15 L 22 15 A 5 5 0 0 0 27 10 A 5 5 0 0 0 22 5 A 5 5 0 0 0 17 10 L 17 11 L 15 11 L 15 10 A 5 5 0 0 0 10 5 z " />
</svg>
